flaticon/business/megaphone.svg

<svg xmlns="http://www.w3.org/2000/svg" width="32" height="32" viewBox="0 0 24 24">
    <path d="M20.019531 8.183594L20.019531 3.035156C20.019531 2.300781 19.644531 1.632812 19.011719 1.257812 18.691406 1.066406 18.335938.964844 17.980469.960938 17.628906.949219 17.273438 1.03125 16.945312 1.207031L16 1.714844 16 1.726562 9.113281 5.414062C8.617188 5.683594 8.257812 6.132812 8.105469 6.660156L2.894531 6.976562C2.234375 7.023438 1.714844 7.539062 1.636719 8.179688L1.285156 8.179688C.574219 8.179688 0 8.757812 0 9.464844L0 11.695312C0 12.402344.574219 12.980469 1.285156 12.980469L1.636719 12.980469C1.726562 13.691406 2.300781 14.261719 3.035156 14.3125L3.21875 14.324219 3.21875 21.238281C3.21875 22.230469 4.027344 23.039062 5.019531 23.039062 6.011719 23.039062 6.820312 22.230469 6.820312 21.238281L6.820312 14.542969 8.117188 14.621094C8.28125 15.152344 8.648438 15.601562 9.167969 15.859375L16 19.277344 16 19.289062 17 19.789062C17.292969 19.933594 17.609375 20.007812 17.925781 20.007812 17.929688 20.007812 17.933594 20.007812 17.9375 20.007812 17.941406 20.007812 17.945312 20.007812 17.949219 20.007812 18.324219 20.007812 18.703125 19.902344 19.035156 19.695312 19.652344 19.316406 20.019531 18.65625 20.019531 17.933594L20.019531 12.976562C21.113281 12.96875 22 12.078125 22 10.980469L22 10.179688C22 9.085938 21.113281 8.195312 20.019531 8.183594zM6.019531 21.238281C6.019531 21.792969 5.570312 22.238281 5.019531 22.238281 4.46875 22.238281 4.019531 21.792969 4.019531 21.238281L4.019531 20.980469 4.820312 20.980469C5.042969 20.980469 5.21875 20.800781 5.21875 20.582031 5.21875 20.359375 5.042969 20.179688 4.820312 20.179688L4.019531 20.179688 4.019531 19.378906 4.820312 19.378906C5.042969 19.378906 5.21875 19.203125 5.21875 18.980469 5.21875 18.757812 5.042969 18.582031 4.820312 18.582031L4.019531 18.582031 4.019531 17.78125 4.820312 17.78125C5.042969 17.78125 5.21875 17.601562 5.21875 17.378906 5.21875 17.160156 5.042969 16.980469 4.820312 16.980469L4.019531 16.980469 4.019531 16.179688 4.820312 16.179688C5.042969 16.179688 5.21875 16 5.21875 15.78125 5.21875 15.558594 5.042969 15.378906 4.820312 15.378906L4.019531 15.378906 4.019531 14.375 6.019531 14.5zM17.378906 19.070312L16.800781 18.78125 16.800781 2.207031 17.34375 1.914062C17.515625 1.824219 17.695312 1.78125 17.878906 1.769531 17.902344 1.769531 17.929688 1.761719 17.953125 1.761719 17.957031 1.761719 17.957031 1.761719 17.960938 1.761719 18.175781 1.769531 18.386719 1.828125 18.578125 1.945312 18.96875 2.175781 19.199219 2.582031 19.199219 3.035156L19.199219 17.933594C19.199219 18.378906 18.972656 18.78125 18.59375 19.015625 18.410156 19.132812 18.199219 19.195312 17.992188 19.203125 17.78125 19.210938 17.574219 19.167969 17.378906 19.070312zM1.601562 12.179688L1.285156 12.179688C1.015625 12.179688.800781 11.964844.800781 11.695312L.800781 9.464844C.800781 9.199219 1.015625 8.980469 1.285156 8.980469L1.601562 8.980469zM2.421875 12.800781L2.421875 8.34375C2.421875 8.046875 2.652344 7.796875 2.945312 7.777344L8.019531 7.464844 8.019531 13.816406 3.085938 13.515625C2.714844 13.488281 2.421875 13.175781 2.421875 12.800781zM9.523438 15.144531C9.089844 14.929688 8.820312 14.492188 8.820312 14.007812L8.820312 7.242188C8.820312 6.773438 9.078125 6.34375 9.492188 6.121094L16 2.632812 16 18.382812zM21.199219 10.980469C21.199219 11.636719 20.671875 12.167969 20.019531 12.179688L20.019531 8.980469C20.671875 8.992188 21.199219 9.527344 21.199219 10.179688zM23.125 7.949219C23 7.769531 22.75 7.726562 22.566406 7.855469 22.386719 7.980469 22.34375 8.230469 22.472656 8.410156 22.933594 9.066406 23.179688 9.800781 23.199219 10.589844 23.222656 11.589844 22.699219 12.429688 22.472656 12.746094 22.34375 12.925781 22.386719 13.175781 22.566406 13.304688 22.636719 13.355469 22.71875 13.382812 22.796875 13.382812 22.921875 13.382812 23.042969 13.324219 23.121094 13.214844 23.398438 12.832031 24.03125 11.808594 23.996094 10.570312 23.972656 9.621094 23.679688 8.738281 23.125 7.949219zM23.125 7.949219"/>
    <path d="M12.757812 6.003906C12.660156 5.804688 12.421875 5.722656 12.222656 5.820312L10.441406 6.703125C9.921875 6.980469 9.597656 7.519531 9.597656 8.109375L9.597656 8.980469C9.597656 9.203125 9.777344 9.378906 10 9.378906 10.21875 9.378906 10.398438 9.203125 10.398438 8.980469L10.398438 8.109375C10.398438 7.816406 10.558594 7.546875 10.808594 7.414062L12.578125 6.539062C12.773438 6.441406 12.855469 6.203125 12.757812 6.003906zM10 9.78125C9.777344 9.78125 9.597656 9.960938 9.597656 10.179688L9.597656 10.980469C9.597656 11.203125 9.777344 11.378906 10 11.378906 10.21875 11.378906 10.398438 11.203125 10.398438 10.980469L10.398438 10.179688C10.398438 9.960938 10.21875 9.78125 10 9.78125zM10 9.78125"/>
</svg>

<svg xmlns="http://www.w3.org/2000/svg" width="32" height="32" viewBox="0 0 24 24">
    <path d="M20.02 8.184V3.035c0-.734-.375-1.402-1.008-1.777A2.057 2.057 0 0 0 17.98.96a2.044 2.044 0 0 0-1.035.246L16 1.715v.012L9.113 5.414c-.496.27-.855.719-1.008 1.246l-5.21.317A1.37 1.37 0 0 0 1.637 8.18h-.352C.575 8.18 0 8.758 0 9.465v2.23c0 .707.574 1.285 1.285 1.285h.352a1.52 1.52 0 0 0 1.398 1.332l.184.012v6.914c0 .992.808 1.801 1.8 1.801.993 0 1.801-.809 1.801-1.8v-6.696l1.297.078c.164.531.531.98 1.051 1.238L16 19.277v.012l1 .5c.293.145.61.219.926.219h.023c.375 0 .754-.106 1.086-.313.617-.379.985-1.039.985-1.761v-4.957A1.996 1.996 0 0 0 22 10.98v-.8a2.002 2.002 0 0 0-1.98-1.996zm-14 13.054a1 1 0 1 1-2 0v-.258h.8c.223 0 .399-.18.399-.398a.398.398 0 0 0-.399-.402h-.8v-.801h.8a.395.395 0 0 0 .399-.399.395.395 0 0 0-.399-.398h-.8v-.8h.8c.223 0 .399-.18.399-.403a.398.398 0 0 0-.399-.399h-.8v-.8h.8c.223 0 .399-.18.399-.399a.398.398 0 0 0-.399-.402h-.8v-1.004l2 .125zm11.359-2.168l-.578-.289V2.207l.543-.293a1.32 1.32 0 0 1 .535-.144c.023 0 .05-.008.074-.008h.008c.215.008.426.066.617.183.39.23.621.637.621 1.09v14.899c0 .445-.226.847-.605 1.082-.184.117-.395.18-.602.187a1.254 1.254 0 0 1-.613-.133zM1.602 12.18h-.317a.482.482 0 0 1-.484-.485v-2.23c0-.266.215-.485.484-.485h.317zm.82.62V8.345c0-.297.23-.547.523-.567l5.075-.312v6.351l-4.934-.3a.72.72 0 0 1-.664-.715zm7.101 2.345a1.262 1.262 0 0 1-.703-1.137V7.242c0-.469.258-.898.672-1.12L16 2.631v15.75zM21.2 10.98a1.2 1.2 0 0 1-1.18 1.2v-3.2c.653.012 1.18.547 1.18 1.2zm0 0M23.125 7.95a.4.4 0 0 0-.652.46c.46.656.707 1.39.726 2.18.024 1-.5 1.84-.726 2.156a.4.4 0 0 0 .093.559.4.4 0 0 0 .23.078.397.397 0 0 0 .325-.168c.277-.383.91-1.406.875-2.645a4.689 4.689 0 0 0-.871-2.62zm0 0"/>
    <path d="M12.758 6.004a.399.399 0 0 0-.535-.184l-1.782.883c-.52.277-.843.817-.843 1.406v.871c0 .223.18.399.402.399a.398.398 0 0 0 .398-.399v-.87c0-.294.16-.563.41-.696l1.77-.875a.4.4 0 0 0 .18-.535zm0 0M10 9.781a.401.401 0 0 0-.402.399v.8c0 .223.18.399.402.399a.398.398 0 0 0 .398-.399v-.8A.4.4 0 0 0 10 9.78zm0 0"/>
</svg>
